papirus/32x32/status/notification-audio-volume-high.svg

<?xml version="1.0" encoding="UTF-8" standalone="no"?>
<!-- Created with Inkscape (http://www.inkscape.org/) -->

<svg
   xmlns:dc="http://purl.org/dc/elements/1.1/"
   xmlns:cc="http://creativecommons.org/ns#"
   xmlns:rdf="http://www.w3.org/1999/02/22-rdf-syntax-ns#"
   xmlns:svg="http://www.w3.org/2000/svg"
   xmlns="http://www.w3.org/2000/svg"
   xmlns:sodipodi="http://sodipodi.sourceforge.net/DTD/sodipodi-0.dtd"
   xmlns:inkscape="http://www.inkscape.org/namespaces/inkscape"
   id="svg7384"
   style="enable-background:new"
   height="32"
   width="32"
   version="1.1"
   inkscape:version="0.91 r13725"
   sodipodi:docname="notification-audio-volume-high.svg">
  <defs
     id="defs12" />
  <sodipodi:namedview
     pagecolor="#3c3c3c"
     bordercolor="#666666"
     borderopacity="1"
     objecttolerance="10"
     gridtolerance="10"
     guidetolerance="10"
     inkscape:pageopacity="0"
     inkscape:pageshadow="2"
     inkscape:window-width="1535"
     inkscape:window-height="876"
     id="namedview10"
     showgrid="false"
     inkscape:zoom="8.6599296"
     inkscape:cx="12.152003"
     inkscape:cy="10.820428"
     inkscape:window-x="65"
     inkscape:window-y="24"
     inkscape:window-maximized="1"
     inkscape:current-layer="svg7384" />
  <metadata
     id="metadata90">
    <rdf:RDF>
      <cc:Work
         rdf:about="">
        <dc:format>image/svg+xml</dc:format>
        <dc:type
           rdf:resource="http://purl.org/dc/dcmitype/StillImage" />
        <dc:title>Paper Symbolic Icon Theme</dc:title>
      </cc:Work>
    </rdf:RDF>
  </metadata>
  <title
     id="title8473">Paper Symbolic Icon Theme</title>
  <path
     inkscape:connector-curvature="0"
     style="fill:#c4c4c4;fill-opacity:1;stroke:none"
     d="M 14.99865,2 7,10.00186 l -6,0 0,12 6,0 L 14.99865,30 Z"
     id="path4218"
     sodipodi:nodetypes="ccccccc" />
  <path
     sodipodi:nodetypes="ccsccsc"
     id="path4253"
     d="m 18.99865,2 0,3 c 4.64,1.48 8,5.86 8,11 0,5.14 -3.36,9.52 -8,11 l 0,3 c 6.3,-1.56 11,-7.2 11,-14 0,-6.8 -4.7,-12.44 -11,-14 z"
     style="fill:#c4c4c4;fill-opacity:1;stroke:none"
     inkscape:connector-curvature="0" />
  <path
     inkscape:connector-curvature="0"
     style="fill:#c4c4c4;fill-opacity:1;stroke:none"
     d="m 18.99865,10 0,12 c 2.12,-1.16 3.58204,-3.4 3.58204,-6 0,-2.6 -1.44204,-4.84 -3.58204,-6 z"
     id="path4255"
     sodipodi:nodetypes="ccsc" />
  <path
     style="fill:#ffffff;fill-opacity:1;stroke:none;opacity:0.2"
     d="M 14.998047 2 L 7 10.001953 L 1 10.001953 L 1 11.001953 L 7 11.001953 L 14.998047 3 L 14.998047 2 z "
     id="path4140" />
  <path
     style="fill:#ffffff;fill-opacity:1;stroke:none;opacity:0.2"
     d="M 18.998047 2 L 18.998047 3 C 25.141771 4.5213031 29.751033 9.9265528 29.976562 16.5 C 29.982299 16.332793 29.998047 16.168679 29.998047 16 C 29.998047 9.2 25.298047 3.56 18.998047 2 z M 26.978516 16.5 C 26.768002 21.421514 23.486238 25.568422 18.998047 27 L 18.998047 28 C 23.638047 26.52 26.998047 22.14 26.998047 17 C 26.998047 16.831833 26.985636 16.666465 26.978516 16.5 z "
     id="path4142" />
  <path
     style="fill:#ffffff;fill-opacity:1;stroke:none;opacity:0.2"
     d="M 18.998047 10 L 18.998047 11 C 20.998283 12.08424 22.37183 14.11663 22.544922 16.5 C 22.55717 16.333465 22.580078 16.169807 22.580078 16 C 22.580078 13.4 21.138047 11.16 18.998047 10 z "
     id="path4144" />
  <path
     style="fill:#000000;fill-opacity:1;stroke:none;opacity:0.3"
     d="M 1 21.001953 L 1 22.001953 L 7 22.001953 L 14.998047 30 L 14.998047 29 L 7 21.001953 L 1 21.001953 z "
     id="path4155" />
  <path
     style="fill:#000000;fill-opacity:1;stroke:none;opacity:0.3"
     d="M 18.998047 4 L 18.998047 5 C 23.486238 6.4315783 26.768002 10.578486 26.978516 15.5 C 26.985636 15.333535 26.998047 15.168167 26.998047 15 C 26.998047 9.86 23.638047 5.48 18.998047 4 z M 29.976562 15.5 C 29.751033 22.073447 25.141771 27.478697 18.998047 29 L 18.998047 30 C 25.298047 28.44 29.998047 22.8 29.998047 16 C 29.998047 15.831321 29.982299 15.667207 29.976562 15.5 z "
     id="path4157" />
  <path
     style="fill:#000000;fill-opacity:1;stroke:none;opacity:0.3"
     d="M 22.544922 15.5 C 22.369628 17.88337 20.979589 19.91576 18.998047 21 L 18.998047 22 C 21.118047 20.84 22.580078 18.6 22.580078 16 C 22.580078 15.830193 22.557016 15.666535 22.544922 15.5 z "
     id="path4159" />
</svg>

<?xml version="1.0" encoding="UTF-8" standalone="no"?>
<svg id="svg7384" xmlns:rdf="http://www.w3.org/1999/02/22-rdf-syntax-ns#" style="enable-background:new" xmlns="http://www.w3.org/2000/svg" height="32" width="32" version="1.1" xmlns:cc="http://creativecommons.org/ns#" xmlns:dc="http://purl.org/dc/elements/1.1/">
 <metadata id="metadata90">
  <rdf:RDF>
   <cc:Work rdf:about="">
    <dc:format>image/svg+xml</dc:format>
    <dc:type rdf:resource="http://purl.org/dc/dcmitype/StillImage"/>
    <dc:title>Paper Symbolic Icon Theme</dc:title>
   </cc:Work>
  </rdf:RDF>
 </metadata>
 <title id="title8473">Paper Symbolic Icon Theme</title>
 <path id="path4218" fill="#c4c4c4" d="m14.999 2-7.999 8.002h-6v12h6l7.999 7.998z"/>
 <path id="path4253" fill="#c4c4c4" d="m18.999 2v3c4.64 1.48 8 5.86 8 11s-3.36 9.52-8 11v3c6.3-1.56 11-7.2 11-14s-4.7-12.44-11-14z"/>
 <path id="path4255" fill="#c4c4c4" d="m18.999 10v12c2.12-1.16 3.582-3.4 3.582-6s-1.442-4.84-3.582-6z"/>
 <path id="path4140" opacity=".2" d="m14.998 2l-7.998 8.002h-6v1h6l7.998-8.002v-1z" fill="#fff"/>
 <path id="path4142" opacity=".2" d="m18.998 2v1c6.144 1.5213 10.753 6.9266 10.979 13.5 0.005-0.167 0.021-0.331 0.021-0.5 0-6.8-4.7-12.44-11-14zm7.981 14.5c-0.211 4.922-3.493 9.068-7.981 10.5v1c4.64-1.48 8-5.86 8-11 0-0.168-0.012-0.334-0.019-0.5z" fill="#fff"/>
 <path id="path4144" opacity=".2" d="m18.998 10v1c2 1.084 3.374 3.117 3.547 5.5 0.012-0.167 0.035-0.33 0.035-0.5 0-2.6-1.442-4.84-3.582-6z" fill="#fff"/>
 <path id="path4155" opacity=".2" d="m1 22.002v1h6l7.998 7.998v-1l-7.998-7.998h-6z"/>
 <path id="path4157" opacity=".2" d="m18.998 5v1c4.4882 1.4316 7.77 5.5785 7.9805 10.5 0.0071-0.16646 0.01953-0.33183 0.01953-0.5 0-5.14-3.36-9.52-8-11zm10.979 11.5c-0.226 6.573-4.835 11.979-10.979 13.5v1c6.3-1.56 11-7.2 11-14 0-0.16868-0.01575-0.33279-0.02148-0.5z"/>
 <path id="path4159" opacity=".2" d="m22.545 16.5c-0.17529 2.3834-1.5653 4.4158-3.5469 5.5v1c2.12-1.16 3.582-3.4 3.582-6 0-0.16981-0.02306-0.33346-0.03516-0.5z"/>
</svg>
